X:1
T:Bothell, 87.87 D
T:John Robson Sweney (1837-1899)
T:Bothell, 87.87 D
T:Public Domain
C:John Robson Sweney (1837-1899)
Z:Public Domain
%%score 1 ( 2 3 )
L:1/8
M:3/4
K:Ab
V:1 treble 
V:2 bass 
V:3 bass 
V:1
 [CE] | [Ec]>[=D=B] [Ec]3 [E_B] | [DB]>[CA] [CE]3 [CE] | [DE]3 [DG] [DF][DE] | [CE] [CA]4 [CE] | %5
 [Ec]>[=D=B] [Ec]3 [EA] | [FB]>[FA] [DF]3 [DA] | [CE]3 [Ec] [Ec][DB] | [DB] [CA]4 [EA] | %9
 [EA]>[EG] [EG]3 [EB] | [EA]>[EB] [Ec]3 [CE] | [DF]3 [Fd] [Fd][DF] | [DF] [CE]4 [CE] | %13
 [Ec]>[=D=B] [Ec]3 [EA] | [FB]>[FA] [DF]3 [DA] | [CE]3 [Ec] [Ec][DB] | [DB] [CA]4 |] %17
V:2
 [A,,A,] | [A,,A,]>[A,,A,] [A,,A,]3 [A,,E,] | [A,,E,]>[A,,E,] [A,,A,]3 [A,,A,] | %3
 [E,G,]3 [E,B,] [E,A,][E,G,] | [A,,A,] [A,,E,]4 [A,,A,] | [A,,A,]>[A,,A,] [A,,A,]3 [C,A,] | %6
 [D,A,]>[D,A,] [D,A,]3 [F,A,] | [E,A,]3 [E,A,] [E,A,][E,G,] | [A,,E,] [A,,E,]4 [A,C] | %9
 [E,C]>[E,B,] [E,B,]3 [D,G,] | [C,A,]>[E,G,] A,3 [A,,A,] | [D,A,]3 [D,A,] [D,A,][D,A,] | %12
 [A,,A,] [A,,A,]4 [A,,A,] | [A,,A,]>[A,,A,] [A,,A,]3 [C,A,] | [D,A,]>[D,A,] [D,A,]3 [F,A,] | %15
 [E,A,]3 [E,A,] [E,A,][E,G,] | [A,,E,] [A,,E,]4 |] %17
V:3
 x | x6 | x6 | x6 | x6 | x6 | x6 | x6 | x6 | x6 | x2 A,3 x | x6 | x6 | x6 | x6 | x6 | x5 |] %17

